X:8
T: Mikor én a kufferomat pakoltam
O: Ghymes (Nyitra), 1916
Q:1/4=108
M:4/4
M:4/4
M:4/4
L:1/4
K:D
B/c/d/c/ B/A/G/F/ | E<B, B, z | 
d<B d<c | d/B/A/F/ | D<E F z | 
d<B d<c | d/B/A/F/ | D<E F z | 
B/c/d/c/ B/A/G/F/ | E<B, B, z | 

